public/salesforce-badge.svg

<svg width="65" height="65" viewBox="0 0 65 65" fill="none" xmlns="http://www.w3.org/2000/svg">
<path d="M27.5136 15.2531C29.5816 13.1111 32.4636 11.7561 35.6396 11.7561C39.8746 11.7561 43.5446 14.1201 45.5146 17.6161C47.2146 16.8531 49.1096 16.4341 51.1146 16.4341C58.7486 16.4341 64.9146 22.6641 64.9146 30.3471C64.9146 38.0301 58.7136 44.2611 51.0936 44.2611C50.1839 44.26 49.2765 44.1692 48.3846 43.9901C46.6606 47.0681 43.3616 49.1601 39.5686 49.1601C37.9926 49.1601 36.4906 48.7901 35.1606 48.1601C33.4126 52.2721 29.3246 55.1781 24.5706 55.1781C19.6206 55.1781 15.3856 52.0511 13.7706 47.6431C13.0493 47.7913 12.3149 47.8657 11.5786 47.8651C5.67058 47.8561 0.893584 43.0311 0.893584 37.0461C0.889214 35.1555 1.3803 33.2967 2.31793 31.655C3.25555 30.0133 4.60698 28.6459 6.23758 27.6891C5.57258 26.1871 5.20358 24.5121 5.20358 22.7391C5.17858 15.9181 10.7686 10.3511 17.6136 10.3511C19.5299 10.3481 21.4209 10.789 23.1383 11.6391C24.8557 12.4892 26.3529 13.7255 27.5126 15.2511" fill="#00a1e0"/>
</svg>

<svg fill="none" height="65" viewBox="0 0 65 65" width="65" xmlns="http://www.w3.org/2000/svg"><path d="m27.5136 15.2531c2.068-2.142 4.95-3.497 8.126-3.497 4.235 0 7.905 2.364 9.875 5.86 1.7-.763 3.595-1.182 5.6-1.182 7.634 0 13.8 6.23 13.8 13.913s-6.201 13.914-13.821 13.914c-.9097-.0011-1.8171-.0919-2.709-.271-1.724 3.078-5.023 5.17-8.816 5.17-1.576 0-3.078-.37-4.408-1-1.748 4.112-5.836 7.018-10.59 7.018-4.95 0-9.185-3.127-10.8-7.535-.7213.1482-1.4557.2226-2.192.222-5.90802-.009-10.685016-4.834-10.685016-10.819-.00437-1.8906.486716-3.7494 1.424346-5.3911.93762-1.6417 2.28905-3.0091 3.91965-3.9659-.665-1.502-1.034-3.177-1.034-4.95-.025-6.821 5.56502-12.388 12.41002-12.388 1.9163-.003 3.8073.4379 5.5247 1.288s3.2146 2.0864 4.3743 3.612" fill="#00a1e0"/></svg>
